public/mascots/nj/bunny-ditto-64x64.svg

<svg xmlns="http://www.w3.org/2000/svg" width="64" height="64" viewBox="0 0 64 64"><path fill="none" stroke="#00f" stroke-dasharray="3,1.5" stroke-linecap="round" stroke-linejoin="round" stroke-width="2" d="M24 24q-4-8-2-14 4-4 8 6 2 6 0 10M34 26q-2-4 0-10 4-10 8-6 2 6-2 14"/><ellipse cx="32" cy="32" fill="none" stroke="#00f" stroke-dasharray="4,2" stroke-width="2" rx="14" ry="12"/><ellipse cx="32" cy="36" fill="none" stroke="#00f" stroke-width="1.8" rx="6" ry="5"/><ellipse cx="32" cy="34" fill="#00f" rx="2.5" ry="2"/><circle cx="25" cy="29" r="2" fill="none" stroke="#00f" stroke-width="1.5"/><circle cx="39" cy="29" r="2" fill="none" stroke="#00f" stroke-width="1.5"/><path fill="none" stroke="#00f" stroke-linecap="round" stroke-width="1.5" d="M28 40q2 2 4 0 2 2 4 0"/><path fill="none" stroke="#00f" stroke-dasharray="4,2" stroke-linecap="round" stroke-linejoin="round" stroke-width="2" d="M20 44q-2 6 12 10 14-4 12-10"/><ellipse cx="20" cy="50" fill="none" stroke="#00f" stroke-width="1.5" rx="3.5" ry="4.5"/><ellipse cx="44" cy="50" fill="none" stroke="#00f" stroke-width="1.5" rx="3.5" ry="4.5"/></svg>

<svg xmlns="http://www.w3.org/2000/svg" viewBox="0 0 64 64" width="64" height="64">
  <path d="M24 24 Q20 16 22 10 Q26 6 30 16 Q32 22 30 26" 
        fill="none" stroke="#0000FF" stroke-width="2" stroke-linecap="round" stroke-linejoin="round" stroke-dasharray="3,1.5"/>
  <path d="M34 26 Q32 22 34 16 Q38 6 42 10 Q44 16 40 24" 
        fill="none" stroke="#0000FF" stroke-width="2" stroke-linecap="round" stroke-linejoin="round" stroke-dasharray="3,1.5"/>
  <ellipse cx="32" cy="32" rx="14" ry="12" fill="none" stroke="#0000FF" stroke-width="2" stroke-dasharray="4,2"/>
  <ellipse cx="32" cy="36" rx="6" ry="5" fill="none" stroke="#0000FF" stroke-width="1.8"/>
  <ellipse cx="32" cy="34" rx="2.5" ry="2" fill="#0000FF"/>
  <circle cx="25" cy="29" r="2" fill="none" stroke="#0000FF" stroke-width="1.5"/>
  <circle cx="39" cy="29" r="2" fill="none" stroke="#0000FF" stroke-width="1.5"/>
  <path d="M28 40 Q30 42 32 40 Q34 42 36 40" fill="none" stroke="#0000FF" stroke-width="1.5" stroke-linecap="round"/>
  <path d="M20 44 Q18 50 32 54 Q46 50 44 44" 
        fill="none" stroke="#0000FF" stroke-width="2" stroke-linecap="round" stroke-linejoin="round" stroke-dasharray="4,2"/>
  <ellipse cx="20" cy="50" rx="3.5" ry="4.5" fill="none" stroke="#0000FF" stroke-width="1.5"/>
  <ellipse cx="44" cy="50" rx="3.5" ry="4.5" fill="none" stroke="#0000FF" stroke-width="1.5"/>
</svg>
